src/lib/packages/icons/src/assets/filled/traffic-cone.svg

<svg width="24" height="24" viewBox="0 0 24 24" fill="none" xmlns="http://www.w3.org/2000/svg">
<path d="M15.016 9.25H8.98401C8.79201 9.25 8.64901 9.07201 8.69101 8.88501L9.73999 4.16992C9.88999 3.48992 10.25 3 11.2 3H12.8C13.75 3 14.11 3.48992 14.26 4.16992L15.309 8.88501C15.35 9.07201 15.208 9.25 15.016 9.25ZM16.639 14.885L15.772 10.9851C15.741 10.8481 15.62 10.75 15.479 10.75H8.51999C8.37899 10.75 8.25799 10.8481 8.22699 10.9851L7.35999 14.885C7.31799 15.072 7.46102 15.25 7.65302 15.25H16.345C16.538 15.25 16.681 15.072 16.639 14.885ZM20 20.25H17.83L17.102 16.9851C17.071 16.8481 16.95 16.75 16.809 16.75H7.19C7.049 16.75 6.928 16.8481 6.897 16.9851L6.16901 20.25H4C3.586 20.25 3.25 20.586 3.25 21C3.25 21.414 3.586 21.75 4 21.75H20C20.414 21.75 20.75 21.414 20.75 21C20.75 20.586 20.414 20.25 20 20.25Z" fill="currentColor"/>
</svg>

<svg xmlns="http://www.w3.org/2000/svg" width="24" height="24" fill="none"><path fill="currentColor" d="M15.016 9.25H8.984a.3.3 0 0 1-.293-.365L9.74 4.17C9.89 3.49 10.25 3 11.2 3h1.6c.95 0 1.31.49 1.46 1.17l1.049 4.715a.3.3 0 0 1-.293.365Zm1.623 5.635-.867-3.9a.3.3 0 0 0-.293-.235H8.52a.3.3 0 0 0-.293.235l-.867 3.9a.3.3 0 0 0 .293.365h8.692a.3.3 0 0 0 .294-.365ZM20 20.25h-2.17l-.728-3.265a.3.3 0 0 0-.293-.235H7.19a.3.3 0 0 0-.293.235l-.728 3.265H4a.75.75 0 0 0 0 1.5h16a.75.75 0 0 0 0-1.5Z"/></svg>
